X:1
T:Title
%%score { ( 1 2 ) | ( 3 4 ) }
L:1/8
Q:1/4=100
M:3/4
K:Bb
V:1 treble nm="Grand Piano"
V:2 treble 
V:3 bass 
V:4 bass 
V:1
 [DF]4 z2 | G2 F2 [B,DB]2 | c4 z2 | [DB]6 | B4 c2 | d2 c2 [FB]2 | B2 z2 z2 | c4 z2 | %8
w: Hubert~P.~Main||||||||
 [B,DF]4 [B,_DG]2 | G2 z2 z2 | [Fd]2 [Ge]2 [Fd]2 | [Fd]2 [Ec]4 | _D2- [DA]2 B2 | F2 e2 [Fd]2 | %14
w: ||||||
 c2 G2 A2 | [DB]6 |] %16
w: ||
V:2
 z2 B,2 G2 | x6 | z2 A,2 d2 | x6 | x6 | x6 | =E4 [CEB]2 | E6 | x6 | [B,D]4 [B,FB]2 | x6 | x6 | %12
 [B,G]2 z2 z2 | x6 | x6 | x6 |] %16
V:3
 F,2 z2 [=E,B,_D]2 | [F,D]2 z2 z2 | B,2 z2 z2 | [B,,B,]6 | [G,B,D]4 [^F,B,=E]2 | %5
 F2- [E,A,F]2 [D,B,]2 | z2 A2 C,2 | z2 z2 F2 | B,,4 =E,2 | z2 F2 D,2 | [=B,,G,]4 [G,,=B,]2 | %11
 =B,2 C4 | z2 A,2 [E,G,_D]2 | [F,B,D]2 [A,,CF]2 [B,,B,]2 | [E,E]2- [E,CE]2 [F,E]2 | [B,,F,]6 |] %16
V:4
 B,,4 z2 | B,2- [D,B,]2 B,,2 | [F,E]4 [F,,A,F]2 | x6 | x6 | [F,B,]2 z2 z2 | [C,G,]4 z2 | [F,A,]6 | %8
 x6 | F,4 z2 | x6 | C,6 | E,4 z2 | x6 | G,2 z2 z2 | x6 |] %16

